assets/folder-up_icon.svg

<svg width="17" height="17" viewBox="0 0 17 17" fill="none" xmlns="http://www.w3.org/2000/svg">
<path d="M15.4784 5.18576C15.913 5.72469 15.4424 6.4195 14.7501 6.4195H1.43588C0.883598 6.4195 0.435883 5.97179 0.435883 5.4195V4.15551C0.435883 2.20351 2.01988 0.619507 3.97188 0.619507H5.82788C7.13188 0.619507 7.53988 1.04351 8.05988 1.73951L9.17988 3.22751C9.42788 3.55551 9.45988 3.59551 9.92388 3.59551H12.1559C13.4976 3.59551 14.6959 4.2154 15.4784 5.18576Z" fill="#111111"/>
<path d="M15.4231 7.61951C15.974 7.6195 16.4211 8.06478 16.4231 8.6156L16.4358 12.3392C16.4358 14.6992 14.5155 16.6195 12.1555 16.6195H4.71606C2.35606 16.6195 0.435791 14.6992 0.435791 12.3392V8.61951C0.435791 8.06723 0.883511 7.61951 1.43579 7.61951H15.4231ZM8.77759 9.3158C8.51622 9.05449 8.08385 9.05446 7.82251 9.3158L5.26294 11.8842C5.1369 12.0193 5.0647 12.1906 5.0647 12.3617C5.06471 12.5328 5.12788 12.7041 5.26294 12.8392C5.5243 13.1006 5.95763 13.1006 6.21899 12.8392L7.62427 11.433V15.1195H8.97681V11.4242H8.9856L10.3909 12.8304C10.6522 13.0918 11.0856 13.0918 11.3469 12.8304C11.6081 12.5692 11.6079 12.1367 11.3469 11.8754L8.77759 9.3158Z" fill="#111111"/>
</svg>

<?xml version="1.0" encoding="UTF-8"?>
<svg id="Layer_1" xmlns="http://www.w3.org/2000/svg" version="1.1" viewBox="0 0 17 17">
  <!-- Generator: Adobe Illustrator 29.7.1, SVG Export Plug-In . SVG Version: 2.1.1 Build 8)  -->
  <path d="M15.5,5.2c.4.5,0,1.2-.7,1.2H1.4c-.6,0-1-.4-1-1v-1.3C.4,2.2,2,.6,4,.6h1.9c1.3,0,1.7.4,2.2,1.1l1.1,1.5c.2.3.3.4.7.4h2.2c1.3,0,2.5.6,3.3,1.6Z" fill="#111"/>
  <path d="M15.4,7.6c.6,0,1,.4,1,1v3.7c0,2.4-1.9,4.3-4.3,4.3h-7.4c-2.4,0-4.3-1.9-4.3-4.3v-3.7c0-.6.4-1,1-1h14ZM8.8,9.3c-.3-.3-.7-.3-1,0l-2.6,2.6c-.1.1-.2.3-.2.5,0,.2,0,.3.2.5.3.3.7.3,1,0l1.4-1.4v3.7h1.4v-3.7h0l1.4,1.4c.3.3.7.3,1,0,.3-.3.3-.7,0-1l-2.6-2.6Z" fill="#111"/>
</svg>
